X: 10642
T: Down Express, The
R: reel
M: 4/4
K: Aminor
e2|A2 A2 ABcd|e2 a2 A3 c|B2 d2 G3 c|BcdB GABG|
A2 A2 ABcd|e2 a2 A3 c|B2 d2 GABG|A4 A2:|
e2|a2 a2 e^gab|a2 a2 e3 ^f|g2 g2 GABc|d2 B2 G4|
a2 a2 e^gab|a2 a2 e3 d|c3 d edcB|A4 A2
e2|a2 a2 e^gab|a2 a2 e3 ^f|g2 g2 GABc|d2 B2 G3 B|
A2 A2 ABcd|e2 a2 A3 c|B2 d2 GABG|A4 A2||

